X: 14278
T: Gaelic Park
R: jig
M: 6/8
K: Gmajor
gdB BGA|BAG EGE|EGG GED|EAA GED|
gdB BGA|BAG EGD|EGG GED|EGG G3:|
Bde ged|aba ged|BAF ABd|edA GED|
Bde ged|aba ged|BAG ABd|edB A3:|

